src/icons/3d_column_basic.svg

<!DOCTYPE svg PUBLIC "-//W3C//DTD SVG 1.1//EN" "http://www.w3.org/Graphics/SVG/1.1/DTD/svg11.dtd"><svg xmlns:xlink="http://www.w3.org/1999/xlink" version="1.1" class="highcharts-root" style="font-family:'lucida grande', 'lucida sans unicode', arial, helvetica, sans-serif;font-size:12px;" xmlns="http://www.w3.org/2000/svg" width="100" viewBox="0 0 100 70" height="70"><desc>Created with Highcharts 5.0.0</desc><defs><clipPath id="highcharts-9"><rect x="0" y="0" width="100" height="70" fill="none"></rect></clipPath></defs><rect fill="#ffffff" class="highcharts-background" x="0" y="0" width="100" height="70" rx="0" ry="0"></rect><rect fill="none" class="highcharts-plot-background" x="0" y="0" width="100" height="70"></rect><g stroke-linejoin="round" class="highcharts-3d-frame highcharts-3d-frame-back"><path fill="none" d="M 87.51958563244574 8.679941658645856 L 86.35782884707069 50.212728275273214 L 86.45418417111884 50.040652107266595 L 87.61713310316344 8.569648435415996 Z" class="highcharts-3d-side"></path><path fill="none" d="M 87.51958563244574 8.679941658645856 L 87.61713310316344 8.569648435415996 L 28.86697110608696 5.714775232709172 L 28.682220713549064 5.815992733879419 Z" class="highcharts-3d-top"></path><path fill="none" d="M 29.315366476804915 45.73887903019228 L 86.35782884707069 50.212728275273214 L 87.51958563244574 8.679941658645856 L 28.682220713549064 5.815992733879419 Z" class="highcharts-3d-front"></path></g><g stroke-linejoin="round" class="highcharts-3d-frame highcharts-3d-frame-side"><path fill="none" d="M 8.285387013319266 64.41131236135271 L 8.91360557595987 64.47025762312748 L 7.423819279818808 17.856984013369424 L 6.773567390492168 17.818885463378024 Z" class="highcharts-3d-front"></path><path fill="none" d="M 7.423819279818808 17.856984013369424 L 29.240499760741457 5.843167347819566 L 28.682220713549064 5.815992733879419 L 6.773567390492168 17.818885463378024 Z" class="highcharts-3d-top"></path><path fill="none" d="M 7.423819279818808 17.856984013369424 L 8.91360557595987 64.47025762312748 L 29.85731366474156 45.781384032902125 L 29.240499760741457 5.843167347819566 Z" class="highcharts-3d-side"></path></g><g stroke-linejoin="round" class="highcharts-3d-frame highcharts-3d-frame-bottom"><path fill="none" d="M 8.91360557595987 64.47025762312748 L 74.90690726666064 70.6623580717185 L 74.91980240246409 70 L 8.893346900661136 63.83639276806903 Z" class="highcharts-3d-front"></path><path fill="none" d="M 74.91980240246409 70 L 74.90690726666064 70.6623580717185 L 86.35782884707069 50.212728275273214 L 86.37369187976026 49.64562510868756 Z" class="highcharts-3d-side"></path><path fill="none" d="M 74.91980240246409 70 L 86.37369187976026 49.64562510868756 L 29.84888074270531 45.23535894269618 L 8.893346900661136 63.83639276806903 Z" class="highcharts-3d-top"></path></g><g class="highcharts-grid highcharts-xaxis-grid "><path fill="none" stroke="#e6e6e6" stroke-width="1" class="highcharts-grid-line" d="M 47.641266526360084 6.738837238303496 L 47.641266526360084 6.738837238303496 L 47.71131251845285 46.62904919867769 L 29.651237253255044 65.77415365685981" opacity="1"></path><path fill="none" stroke="#e6e6e6" stroke-width="1" class="highcharts-grid-line" d="M 67.43979973340875 7.7025443650322245 L 67.43979973340875 7.7025443650322245 L 66.91458213533345 48.12735637678375 L 52.07747263097181 67.86765550408992" opacity="1"></path><path fill="none" stroke="#e6e6e6" stroke-width="1" class="highcharts-grid-line" d="M 87.21558893834359 8.665144411923361 L 87.21558893834359 8.665144411923361 L 86.07921906804428 49.622649295903926 L 74.57324712910084 69.96764886782228" opacity="1"></path><path fill="none" stroke="#e6e6e6" stroke-width="1" class="highcharts-grid-line" d="M 28.961302104099577 5.829577211183782 L 28.961302104099577 5.829577211183782 L 29.57774065189127 45.21420363152032 L 8.579012816741894 63.807049502280165" opacity="1"></path></g><g class="highcharts-grid highcharts-zaxis-grid "></g><g class="highcharts-grid highcharts-yaxis-grid "><path fill="none" stroke="#e6e6e6" stroke-width="1" class="highcharts-grid-line" d="M 8.903478734956735 64.15340331207325 L 29.853098086168924 45.508428625452794 L 86.36575863352036 49.92923853570358 L 86.36575863352036 49.92923853570358" opacity="1"></path><path fill="none" stroke="#e6e6e6" stroke-width="1" class="highcharts-grid-line" d="M 7.41294463172391 17.51673189239715 L 29.23602201963229 5.553237121672254 L 87.52803034173517 8.378043435736146 L 87.52803034173517 8.378043435736146" opacity="1"></path></g><rect fill="none" class="highcharts-plot-border" x="0" y="0" width="100" height="70"></rect><g class="highcharts-axis highcharts-xaxis "><path fill="none" class="highcharts-axis-line" stroke="#ccd6eb" stroke-width="1" d="M 0 0"></path></g><g class="highcharts-axis highcharts-zaxis "><path fill="none" class="highcharts-axis-line" d="M 0 0"></path></g><g class="highcharts-axis highcharts-yaxis "><path fill="none" class="highcharts-axis-line" d="M 0 0"></path></g><g class="highcharts-series-group"><g class="highcharts-series highcharts-series-0 highcharts-column-series highcharts-color-0 " transform="translate(0,0) scale(1 1)" width="70" height="100" clip-path="url(#highcharts-9)"><g stroke-linejoin="round" class="highcharts-point highcharts-color-0" stroke="#7cb5ec" stroke-width="1"><path fill="#7cb5ec" d="M 13.874129099762513 64.37549654838735 L 18.95085209597563 64.84969556018588 L 18.513808783634474 46.760042077624334 L 13.367594273559625 46.34919396474117 Z" class="highcharts-3d-front"></path><path fill="rgb(149,206,255)" d="M 18.513808783634474 46.760042077624334 L 24.114835709320374 42.15832873583804 L 19.170102696696567 41.78225940722567 L 13.367594273559625 46.34919396474117 Z" class="highcharts-3d-top"></path><path fill="rgb(99,156,211)" d="M 18.513808783634474 46.760042077624334 L 18.95085209597563 64.84969556018588 L 24.458768445290648 59.53550733148979 L 24.114835709320374 42.15832873583804 Z" class="highcharts-3d-side"></path></g><g stroke-linejoin="round" class="highcharts-point highcharts-color-0" stroke="#7cb5ec" stroke-width="1"><path fill="#7cb5ec" d="M 35.06933912855344 66.35526728987001 L 40.31006743836453 66.84478546674725 L 40.206476449478515 53.12706491724731 L 34.91034716751537 52.68608575726352 Z" class="highcharts-3d-front"></path><path fill="rgb(149,206,255)" d="M 40.206476449478515 53.12706491724731 L 44.92374181762163 48.19033564484385 L 39.84138761955882 47.78712694380427 L 34.91034716751537 52.68608575726352 Z" class="highcharts-3d-top"></path><path fill="rgb(99,156,211)" d="M 40.206476449478515 53.12706491724731 L 40.31006743836453 66.84478546674725 L 44.97510440039974 61.362348771587804 L 44.92374181762163 48.19033564484385 Z" class="highcharts-3d-side"></path></g><g stroke-linejoin="round" class="highcharts-point highcharts-color-0" stroke="#7cb5ec" stroke-width="1"><path fill="#7cb5ec" d="M 56.953524921252495 68.39939285761403 L 62.36633622647659 68.90498470769208 L 62.41080869040894 64.29782763549704 L 56.97843266789117 63.80864263326892 Z" class="highcharts-3d-front"></path><path fill="rgb(149,206,255)" d="M 62.41080869040894 64.29782763549704 L 66.1869053835654 58.82344579036085 L 60.97973757680447 58.376518919450376 L 56.97843266789117 63.80864263326892 Z" class="highcharts-3d-top"></path><path fill="rgb(99,156,211)" d="M 62.41080869040894 64.29782763549704 L 62.36633622647659 68.90498470769208 L 66.13145973394165 63.24617962371072 L 66.1869053835654 58.82344579036085 Z" class="highcharts-3d-side"></path></g></g><g class="highcharts-markers highcharts-series-0 highcharts-column-series highcharts-color-0 " transform="translate(0,0) scale(1 1)" width="70" height="100" clip-path="none"></g><g class="highcharts-series highcharts-series-1 highcharts-column-series highcharts-color-1 " transform="translate(0,0) scale(1 1)" width="70" height="100" clip-path="url(#highcharts-9)"><g stroke-linejoin="round" class="highcharts-point highcharts-color-1" stroke="#434348" stroke-width="1"><path fill="#434348" d="M 20.226116011302835 64.96881352050823 L 25.35171507279397 65.44757787531893 L 25.178619943227343 56.42664384131319 L 20.01783317398168 55.97936204117897 Z" class="highcharts-3d-front"></path><path fill="rgb(92,92,97)" d="M 25.178619943227343 56.42664384131319 L 30.479716937581966 51.4164235730776 L 25.52172961932206 51.006927718639034 L 20.01783317398168 55.97936204117897 Z" class="highcharts-3d-top"></path><path fill="rgb(42,42,47)" d="M 25.178619943227343 56.42664384131319 L 25.35171507279397 65.44757787531893 L 30.609995788673345 60.08323266816508 L 30.479716937581966 51.4164235730776 Z" class="highcharts-3d-side"></path></g><g stroke-linejoin="round" class="highcharts-point highcharts-color-1" stroke="#434348" stroke-width="1"><path fill="#434348" d="M 41.626630122034754 66.96776100116836 L 46.918627886910635 67.46206807926107 L 46.86305580480085 44.33160785285175 L 41.47621657204786 43.920156718066124 Z" class="highcharts-3d-front"></path><path fill="rgb(92,92,97)" d="M 46.86305580480085 44.33160785285175 L 51.33987615837203 39.72768471348089 L 46.17421474534422 39.351875434684004 L 41.47621657204786 43.920156718066124 Z" class="highcharts-3d-top"></path><path fill="rgb(42,42,47)" d="M 46.86305580480085 44.33160785285175 L 46.918627886910635 67.46206807926107 L 51.317175288925235 61.9270674397042 L 51.33987615837203 39.72768471348089 Z" class="highcharts-3d-side"></path></g><g stroke-linejoin="round" class="highcharts-point highcharts-color-1" stroke="#434348" stroke-width="1"><path fill="#434348" d="M 63.72623681068347 69.03200828444744 L 69.19286981483631 69.54262743195031 L 69.76220667464099 31.559034213215142 L 64.13175169166301 31.188174786144142 Z" class="highcharts-3d-front"></path><path fill="rgb(92,92,97)" d="M 69.76220667464099 31.559034213215142 L 73.31533307978415 27.414002226402793 L 67.92659709703784 27.076105615093248 L 64.13175169166301 31.188174786144142 Z" class="highcharts-3d-top"></path><path fill="rgb(42,42,47)" d="M 69.76220667464099 31.559034213215142 L 69.19286981483631 69.54262743195031 L 72.67339540537307 63.82869490368937 L 73.31533307978415 27.414002226402793 Z" class="highcharts-3d-side"></path></g></g><g class="highcharts-markers highcharts-series-1 highcharts-column-series highcharts-color-1 " transform="translate(0,0) scale(1 1)" width="70" height="100" clip-path="none"></g></g><g class="highcharts-axis-labels highcharts-xaxis-labels "></g><g class="highcharts-axis-labels highcharts-zaxis-labels "></g><g class="highcharts-axis-labels highcharts-yaxis-labels "></g></svg>

<svg class="highcharts-root" xmlns="http://www.w3.org/2000/svg" width="100" viewBox="0 0 100 70" height="70" font-family="'lucida grande','lucida sans unicode',arial,helvetica,sans-serif" font-size="12"><defs><clipPath id="a"><path fill="none" d="M0 0h100v70H0z"/></clipPath></defs><rect fill="#fff" class="highcharts-background" width="100" height="70" rx="0" ry="0"/><path fill="none" class="highcharts-plot-background" d="M0 0h100v70H0z"/><g stroke-linejoin="round" class="highcharts-3d-frame highcharts-3d-frame-back"><path fill="none" d="M87.52 8.68l-1.162 41.533.096-.172L87.617 8.57z" class="highcharts-3d-side"/><path fill="none" d="M87.52 8.68l.097-.11-58.75-2.855-.185.101z" class="highcharts-3d-top"/><path fill="none" d="M29.315 45.739l57.043 4.474L87.52 8.68 28.682 5.816z" class="highcharts-3d-front"/></g><g stroke-linejoin="round" class="highcharts-3d-frame highcharts-3d-frame-side"><path fill="none" d="M8.285 64.411l.629.06-1.49-46.614-.65-.038z" class="highcharts-3d-front"/><path fill="none" d="M7.424 17.857L29.24 5.843l-.558-.027L6.774 17.819z" class="highcharts-3d-top"/><path fill="none" d="M7.424 17.857l1.49 46.613 20.943-18.689-.617-39.938z" class="highcharts-3d-side"/></g><g stroke-linejoin="round" class="highcharts-3d-frame highcharts-3d-frame-bottom"><path fill="none" d="M8.914 64.47l65.993 6.192.013-.662-66.027-6.164z" class="highcharts-3d-front"/><path fill="none" d="M74.92 70l-.013.662 11.45-20.45.017-.566z" class="highcharts-3d-side"/><path fill="none" d="M74.92 70l11.454-20.354-56.525-4.41-20.956 18.6z" class="highcharts-3d-top"/></g><g class="highcharts-grid highcharts-xaxis-grid"><path fill="none" stroke="#e6e6e6" class="highcharts-grid-line" d="M47.641 6.739l.07 39.89-18.06 19.145M67.44 7.703l-.525 40.424-14.838 19.74M87.216 8.665l-1.137 40.958-11.506 20.345M28.961 5.83l.617 39.384L8.579 63.807"/></g><g class="highcharts-grid highcharts-yaxis-grid"><path fill="none" stroke="#e6e6e6" class="highcharts-grid-line" d="M8.903 64.153l20.95-18.645 56.513 4.421M7.413 17.517L29.236 5.553l58.292 2.825"/></g><path fill="none" class="highcharts-plot-border" d="M0 0h100v70H0z"/><g class="highcharts-series-group"><g class="highcharts-series highcharts-series-0 highcharts-column-series highcharts-color-0" clip-path="url(#a)"><g stroke-linejoin="round" class="highcharts-point highcharts-color-0" stroke="#7cb5ec"><path fill="#7cb5ec" d="M13.874 64.375l5.077.475-.437-18.09-5.146-.41z" class="highcharts-3d-front"/><path fill="#95CEFF" d="M18.514 46.76l5.6-4.602-4.944-.376-5.802 4.567z" class="highcharts-3d-top"/><path fill="#639CD3" d="M18.514 46.76l.437 18.09 5.508-5.314-.344-17.378z" class="highcharts-3d-side"/></g><g stroke-linejoin="round" class="highcharts-point highcharts-color-0" stroke="#7cb5ec"><path fill="#7cb5ec" d="M35.07 66.355l5.24.49-.104-13.718-5.296-.44z" class="highcharts-3d-front"/><path fill="#95CEFF" d="M40.206 53.127l4.718-4.937-5.083-.403-4.93 4.9z" class="highcharts-3d-top"/><path fill="#639CD3" d="M40.206 53.127l.104 13.718 4.665-5.483-.051-13.172z" class="highcharts-3d-side"/></g><g stroke-linejoin="round" class="highcharts-point highcharts-color-0" stroke="#7cb5ec"><path fill="#7cb5ec" d="M56.954 68.4l5.412.505.045-4.607-5.433-.49z" class="highcharts-3d-front"/><path fill="#95CEFF" d="M62.41 64.298l3.777-5.475-5.207-.446-4.002 5.432z" class="highcharts-3d-top"/><path fill="#639CD3" d="M62.41 64.298l-.044 4.607 3.765-5.659.056-4.423z" class="highcharts-3d-side"/></g></g><g class="highcharts-series highcharts-series-1 highcharts-column-series highcharts-color-1" clip-path="url(#a)"><g stroke-linejoin="round" class="highcharts-point highcharts-color-1" stroke="#434348"><path fill="#434348" d="M20.226 64.969l5.126.479-.173-9.021-5.161-.448z" class="highcharts-3d-front"/><path fill="#5C5C61" d="M25.179 56.427l5.3-5.01-4.957-.41-5.504 4.972z" class="highcharts-3d-top"/><path fill="#2A2A2F" d="M25.179 56.427l.173 9.02 5.258-5.364-.13-8.667z" class="highcharts-3d-side"/></g><g stroke-linejoin="round" class="highcharts-point highcharts-color-1" stroke="#434348"><path fill="#434348" d="M41.627 66.968l5.292.494-.056-23.13-5.387-.412z" class="highcharts-3d-front"/><path fill="#5C5C61" d="M46.863 44.332l4.477-4.604-5.166-.376-4.698 4.568z" class="highcharts-3d-top"/><path fill="#2A2A2F" d="M46.863 44.332l.056 23.13 4.398-5.535.023-22.2z" class="highcharts-3d-side"/></g><g stroke-linejoin="round" class="highcharts-point highcharts-color-1" stroke="#434348"><path fill="#434348" d="M63.726 69.032l5.467.51.57-37.983-5.631-.37z" class="highcharts-3d-front"/><path fill="#5C5C61" d="M69.762 31.559l3.553-4.145-5.388-.338-3.795 4.112z" class="highcharts-3d-top"/><path fill="#2A2A2F" d="M69.762 31.559l-.57 37.984 3.481-5.714.642-36.415z" class="highcharts-3d-side"/></g></g></g></svg>
